packages/core/src/svgs/tokens/branded/OAX.svg

<svg width="24" height="24" viewBox="0 0 24 24" fill="none" xmlns="http://www.w3.org/2000/svg">
<path d="M9.50048 15.7499H8.50052L11.8504 8.25018L14.1303 13.2499H13.1303L11.8554 10.7501L9.50048 15.7499ZM15.2503 15.7149L18.0802 12L15.2503 8.25018H16.2502L18.6201 11.2801L18.0802 12L18.6201 12.675L16.2502 15.7499H14.2503L13.7003 14.5H14.6652L15.2503 15.7149ZM19.1551 12L18.6201 11.2801L21 8.25018H22L19.1551 12ZM19.1551 12L22 15.7499H21L18.6201 12.675L19.1551 12ZM9.0005 12C9.0255 13.94 7.51057 15.7499 5.50065 15.7499C5.03899 15.7573 4.58055 15.6718 4.15257 15.4986C3.72459 15.3253 3.33581 15.0679 3.00932 14.7413C2.68284 14.4149 2.42532 14.0261 2.25207 13.598C2.07881 13.1701 1.99336 12.7116 2.00079 12.25C1.98511 11.401 2.20304 10.5638 2.63076 9.8301L3.29074 10.695C3.02575 11.1751 3.00075 11.6351 3.00075 12.25C3.00075 12.913 3.26413 13.5489 3.73295 14.0177C4.20178 14.4865 4.83763 14.75 5.50065 14.75C7.08058 14.785 8.00054 13.4349 8.00054 12.065C8.00054 10.6151 7.17058 9.25014 5.50065 9.25014C4.97567 9.25014 4.54068 9.41513 4.20071 9.64017L3.44074 8.94016C4.02906 8.48284 4.75557 8.2395 5.50065 8.25018C7.51556 8.21519 9.05549 10.0651 9.0005 12Z" fill="#1A467E"/>
</svg>

<svg xmlns="http://www.w3.org/2000/svg" width="24" height="24" fill="none" viewBox="0 0 24 24">
    <path fill="#1A467E" d="M9.5 15.75h-1l3.35-7.5 2.28 5h-1l-1.275-2.5zm5.75-.035L18.08 12l-2.83-3.75h1l2.37 3.03-.54.72.54.675-2.37 3.075h-2l-.55-1.25h.965zM19.155 12l-.535-.72L21 8.25h1zm0 0L22 15.75h-1l-2.38-3.075zM9.001 12c.024 1.94-1.49 3.75-3.5 3.75a3.446 3.446 0 0 1-3.5-3.5 4.64 4.64 0 0 1 .63-2.42l.66.865c-.265.48-.29.94-.29 1.555a2.5 2.5 0 0 0 2.5 2.5c1.58.035 2.5-1.315 2.5-2.685 0-1.45-.83-2.815-2.5-2.815-.525 0-.96.165-1.3.39l-.76-.7a3.28 3.28 0 0 1 2.06-.69C7.516 8.215 9.055 10.065 9 12"/>
</svg>
